!!!OTL: 157e. Die unheilvolle Nachtfahrt.
!!!ODT: 1890
!!!ARE: Europa, Mitteleuropa, Deutschland, Kreis Wetzlar
!!!SCT: E0157C
!!!TXL: @@DE
!!!YEM: Copyright 1995, estate of Helmut Schaffrath.
**kern	**text
*ICvox	*
!! Mixed meters:  3/4; 2/4
*M3/4	*
*k[f#]	*
*G:	*
!LO:TX:a:t=Etwas bewegt.	!
!LO:TX:a:t=Aus dem Kreis Wetʒlar 1890.	!
{8d	Jch
=1	=1
8g	ging
16a/L	einſt
16ccJ	.
4b	bei
4a	der
=2	=2
4g	Nacht,
4r	.
8r}	.
{16aL	ich
16bJ	.
=3	=3
8cc	ging
8ee	einſt
4dd	bei
8ccL	der
8ddJ	.
=4	=4
4b	Nacht;
4r	.
8r}	.
{8dd	die
=5	=5
*M2/4	*
8b	Nacht
8dd	die
8dd	war
16eeL	ſo
16ddJ	.
=6	=6
8ddL	fin-
16cc	.
16bJ	.
8cc}	-ſter,
{8dd	ju
=7	=7
4b	ja
8dd	ja
8b	ſo
=8	=8
8bL	fin-
16a	.
16gJ	.
8a}	-ſter,
{8dd	daß
=9	=9
8dd	man
16ccL	kein
16bJ	.
8cc	Stern
8a	mehr
=10	=10
4g	ſah.
8r}	.
{8dd	die
=11	=11
8b	Nacht
8dd	die
8dd	war
16eeL	ſo
16ddJ	.
=12	=12
8ddL	fin-
16cc	.
16bJ	.
8cc}	-ſter,
{8dd	ju
=13	=13
4b	ja
8dd	ja
8b	ſo
=14	=14
8bL	fin-
16a	.
16gJ	.
8a}	-ſter,
{8dd	daß
=15	=15
8dd	man
16ccL	kein
16bJ	.
8cc	Stern
8a	mehr
=16	=16
4g	ſah.
4r}	.
==	==
!!!AGN: erzaehlendes Volks - Lied, Scherz, Schwank, Ballade ?
!!!ONB: ESAC (Essen Associative Code) Database: ERK1
!!!AMT: irregular
!!!AIN: vox
!!!EED: Helmut Schaffrath
!!!EEV: 1.0
!!!GTL: Schwaenke in Liedform (scherzhafte Erzaehlungen, mitunter satirisch)
!!!URL-scan: https://rosdok.uni-rostock.de/mcrviewer/recordIdentifier/rosdok_ppn745146120/iview2/phys_0567.iview2?x=48.94200484286716&y=1163.184935996309&scale=0.6828302752574625&rotation=0&layout=singlePageLayout
!!!ENC: Anna Maria Matuszewska
!!!EEV: 2024/04/12
*-	*-
